static/assets/img/icons/theme/design/bucket.svg

<svg height="24" viewBox="0 0 24 24" width="24" xmlns="http://www.w3.org/2000/svg"><g fill="none" fill-rule="evenodd"><path d="m0 0h24v24h-24z" opacity="0"/><g fill="#000"><path d="m5 5v10c0 .5948613.25970314 1.1290656.6719139 1.4954176.04786717.0425419.09490998.083473.14174142.1224486.01159401.011594 9.18634468-9.16315668 9.18634468-9.16315668 0-.45845802 0-1.27669453 0-2.45470952zm0-2h10c1.1045695 0 2 .8954305 2 2v10c0 2.209139-1.790861 4-4 4h-6c-2.209139 0-4-1.790861-4-4v-10c0-1.1045695.8954305-2 2-2z" fill-rule="nonzero" transform="matrix(.70710678 .70710678 -.70710678 .70710678 10.707107 -3.849242)"/><path d="m20 22c1.6568542 0 3-1.3431458 3-3 0-1.1045695-1-2.7712362-3-5-2 2.2287638-3 3.8954305-3 5 0 1.6568542 1.3431458 3 3 3z" opacity=".3"/></g></g></svg>

<svg width="24px" height="24px" viewBox="0 0 24 24" version="1.1" xmlns="http://www.w3.org/2000/svg" xmlns:xlink="http://www.w3.org/1999/xlink">
    <title>Icon For Bucket</title>
    <g stroke="none" stroke-width="1" fill="none" fill-rule="evenodd">
        <rect opacity="0" x="0" y="0" width="24" height="24"></rect>
        <path d="M5,5 L5,15 C5,15.5948613 5.25970314,16.1290656 5.6719139,16.4954176 C5.71978107,16.5379595 5.76682388,16.5788906 5.81365532,16.6178662 C5.82524933,16.6294602 15,7.45470952 15,7.45470952 C15,6.9962515 15,6.17801499 15,5 L5,5 Z M5,3 L15,3 C16.1045695,3 17,3.8954305 17,5 L17,15 C17,17.209139 15.209139,19 13,19 L7,19 C4.790861,19 3,17.209139 3,15 L3,5 C3,3.8954305 3.8954305,3 5,3 Z" fill="#000000" fill-rule="nonzero" transform="translate(10.000000, 11.000000) rotate(-315.000000) translate(-10.000000, -11.000000) "></path>
        <path d="M20,22 C21.6568542,22 23,20.6568542 23,19 C23,17.8954305 22,16.2287638 20,14 C18,16.2287638 17,17.8954305 17,19 C17,20.6568542 18.3431458,22 20,22 Z" fill="#000000" opacity="0.3"></path>
    </g>
</svg>
